X:147
T:Poor Lucy Anna
M:3/4
L:1/4
K:G
B/A/|\
G A G|G2 B,/C/|D E D|D3|
B3|c2 B|B A2-|A z d|
A A G|F E D|F<F G|A3|
d3|A2 G|F E>F|(A G)||
